app/img/sauat/profile/auth.svg

<svg width="100" height="101" viewBox="0 0 100 101" fill="none" xmlns="http://www.w3.org/2000/svg">
<rect width="100" height="100" rx="50" fill="#969696"/>
<path d="M49.9582 71.2009C60.5408 71.2009 69.1196 59.3186 69.1196 44.661C69.1196 30.0034 60.5408 18.1211 49.9582 18.1211C39.3757 18.1211 30.7969 30.0034 30.7969 44.661C30.7969 59.3186 39.3757 71.2009 49.9582 71.2009Z" fill="white"/>
<path d="M49.6614 69.5049C33.6188 69.5049 19.2801 73.3463 9.74121 79.386C18.6639 91.9904 33.3449 100.221 49.9656 100.221C66.4646 100.221 81.0543 92.1045 89.9999 79.6523C80.461 73.468 65.9322 69.5049 49.6614 69.5049Z" fill="white"/>
<path d="M52.8791 82.2447H47.0447C43.0208 82.2447 39.7271 78.951 39.7271 74.927V58.2835C39.7271 54.2595 43.0208 50.9658 47.0447 50.9658H52.8791C56.9031 50.9658 60.1968 54.2595 60.1968 58.2835V74.927C60.1968 78.951 56.9031 82.2447 52.8791 82.2447Z" fill="white"/>
<path d="M33.824 46.1668C34.3945 50.419 33.4512 54.1083 31.7169 54.4049C29.975 54.7016 28.1037 51.4915 27.5256 47.2318C26.9551 42.9796 27.8983 39.2903 29.6327 38.9937C31.3746 38.7046 33.2458 41.9147 33.824 46.1668Z" fill="white"/>
<path d="M66.0993 46.1667C65.5288 50.4189 66.472 54.1082 68.2064 54.4048C69.9483 54.7015 71.8196 51.4914 72.3977 47.2317C72.9682 42.9795 72.025 39.2902 70.2906 38.9936C68.5563 38.6969 66.6698 41.9146 66.0993 46.1667Z" fill="white"/>
<path d="M31.4658 43.6184C30.8192 39.3663 30.1802 35.1217 29.5337 30.8695C29.2978 29.3254 29.0772 27.6975 29.6401 26.2446C30.203 24.7918 31.8537 23.6279 33.3142 24.1756C32.7285 21.2166 35.9994 19.0335 38.8519 18.0522C43.6289 16.4091 48.7483 15.5724 53.7535 16.219C58.7587 16.8655 63.6498 19.0791 67.0272 22.8368C68.0922 24.0235 69.0202 25.3775 69.5223 26.8912C70.5035 29.8046 69.8798 32.9918 69.2484 35.9965C68.7464 38.385 68.2443 40.7811 67.7423 43.1696C67.6282 43.7173 67.4989 44.2878 67.1261 44.7062C66.5328 45.368 65.5287 45.4136 64.6387 45.4212C55.1379 45.444 45.6371 45.4593 36.1287 45.4821C34.3411 45.4897 32.0058 45.0485 31.77 43.2761" fill="white"/>
</svg>

<svg width="100" height="101" fill="none" xmlns="http://www.w3.org/2000/svg"><rect width="100" height="100" rx="50" fill="#969696"/><path d="M49.958 71.2c10.583 0 19.162-11.881 19.162-26.539 0-14.658-8.58-26.54-19.162-26.54-10.582 0-19.161 11.882-19.161 26.54s8.579 26.54 19.161 26.54Z" fill="#fff"/><path d="M49.661 69.505c-16.042 0-30.38 3.841-39.92 9.881 8.923 12.604 23.604 20.835 40.225 20.835 16.499 0 31.088-8.117 40.034-20.569-9.539-6.184-24.068-10.147-40.339-10.147Z" fill="#fff"/><path d="M52.88 82.245h-5.835c-4.024 0-7.318-3.294-7.318-7.318V58.283c0-4.023 3.294-7.317 7.318-7.317h5.834c4.024 0 7.318 3.294 7.318 7.317v16.644c0 4.024-3.294 7.318-7.318 7.318ZM33.824 46.167c.57 4.252-.373 7.941-2.107 8.238-1.742.297-3.613-2.913-4.191-7.173-.57-4.252.372-7.942 2.107-8.238 1.742-.29 3.613 2.92 4.191 7.173ZM66.1 46.167c-.571 4.252.372 7.941 2.106 8.238 1.742.297 3.614-2.914 4.192-7.173.57-4.252-.373-7.942-2.107-8.238-1.735-.297-3.621 2.92-4.192 7.173Z" fill="#fff"/><path d="M31.466 43.618c-.647-4.252-1.286-8.496-1.932-12.749-.236-1.544-.457-3.171.106-4.624.563-1.453 2.214-2.617 3.674-2.07-.586-2.958 2.685-5.142 5.538-6.123 4.777-1.643 9.896-2.48 14.902-1.833 5.005.646 9.896 2.86 13.273 6.618 1.065 1.186 1.993 2.54 2.495 4.054.981 2.914.358 6.1-.274 9.105l-1.506 7.174c-.114.547-.243 1.118-.616 1.536-.593.662-1.597.708-2.487.715-9.501.023-19.002.038-28.51.061-1.788.008-4.123-.434-4.359-2.206" fill="#fff"/></svg>
